build/category/MegaphoneSolid.svg

<svg xmlns="http://www.w3.org/2000/svg" fill="none" viewBox="0 0 24 24" focusable="false"><path d="M0 0H24V24H0z"/><path fill="#74767B" fill-rule="evenodd" d="M16.2838 18.9178C16.0675 17.5243 15.031 16.4357 13.712 16.1128C13.3483 16.0238 13.0503 15.7231 13.0503 15.3487L13.0503 8.66831C13.0503 8.29498 13.3466 7.99481 13.709 7.90513C15.0306 7.57809 16.068 6.4853 16.2838 5.08766C16.3801 4.46401 16.9168 4.00378 17.5479 4.00378L18.7 4.00378C19.418 4.00378 20 4.58581 20 5.30378L20 18.6961C20 19.4141 19.418 19.9961 18.7 19.9961L17.5424 19.9961C16.9144 19.9961 16.3801 19.5383 16.2838 18.9178ZM4 13.0035C4 14.5349 5.14732 15.7982 6.62925 15.9809L6.62985 15.984L11.0599 15.984C11.4465 15.984 11.7599 15.6706 11.7599 15.284L11.7599 8.70354C11.7599 8.31694 11.4465 8.00354 11.0599 8.00354L7 8.00354C5.34315 8.00354 4 9.34669 4 11.0035L4 13.0035ZM7.47503 12C7.47503 11.4502 7.92275 11 8.47503 11C9.02731 11 9.47503 11.4502 9.47503 12C9.47503 12.5498 9.02731 13 8.47503 13C7.92275 13 7.47503 12.5498 7.47503 12ZM11.7599 17.984L11.7599 18.7074C11.7599 19.9735 11.4557 20.9999 10.1895 20.9999C9.08738 20.9999 8.37079 20.2157 8.16635 19.1326L7.97404 18.1139C7.89267 17.6828 8.22324 17.284 8.66189 17.284L11.0599 17.284C11.4465 17.284 11.7599 17.5974 11.7599 17.984Z"/></svg>

<svg xmlns="http://www.w3.org/2000/svg" fill="none" viewBox="0 0 24 24" focusable="false"><path fill="#74767B" fill-rule="evenodd" d="M13.71 16.11c1.32.32 2.35 1.41 2.57 2.8.1.62.63 1.08 1.26 1.08h1.16c.71 0 1.3-.58 1.3-1.3V5.3c0-.72-.59-1.3-1.3-1.3h-1.16c-.63 0-1.16.46-1.26 1.08A3.45 3.45 0 0 1 13.7 7.9c-.36.09-.65.39-.65.76v6.68c0 .38.29.68.66.77M4 13c0 1.53 1.14 2.79 2.62 2.98h4.44c.38 0 .69-.31.69-.7V8.7c0-.39-.31-.7-.69-.7H7c-1.66 0-3 1.34-3 3zm3.47-1c0-.55.45-1 1-1s1 .45 1 1c0 .54-.45 1-1 1s-1-.46-1-1m4.28 5.98v.72c0 1.27-.3 2.29-1.57 2.29-1.1 0-1.81-.78-2.02-1.86l-.19-1.02c-.08-.43.25-.83.69-.83h2.4c.38 0 .69.31.69.7"/></svg>
